svg/toolbarAtmark.svg

<svg width="284" height="284" viewBox="0 0 284 284" xmlns="http://www.w3.org/2000/svg">
    <path d="M147.604 89.172a29.952 29.952 0 0 0-4.204-.295c-19.376 0-38.019 17.762-44.329 42.234-6.399 24.817-1.397 39.726 3.926 47.863 5.308 8.115 13.208 13.225 22.841 14.777 1.93.312 3.889.47 5.822.47 10.198 0 19.861-4.321 27.788-12.307.665 2.056 1.601 3.886 2.803 5.475 2.269 3 6.563 6.58 14.148 6.621 11.798.327 23.247-4.253 32.09-12.832 12.098-11.734 18.761-29.738 18.761-50.744-.292-18.916-9.023-38.104-23.957-52.645C187.538 62.448 166.84 54 145.014 54c-23.872 0-46.121 9.197-62.648 25.898C66.008 96.426 57 118.455 57 141.926c0 23.679 8.061 45.617 22.699 61.772 15.281 16.866 36.755 26.154 60.467 26.154 25.245 0 47.087-12.47 48.005-13.001 3.826-2.214 5.137-7.129 2.922-10.957a8.048 8.048 0 0 0-6.943-3.999 8.029 8.029 0 0 0-4.008 1.076c-.189.108-19.133 10.848-39.976 10.848-38.899 0-67.132-30.236-67.132-71.893 0-40.313 31.618-71.892 71.98-71.892 38.465 0 65.762 31.923 66.202 60.523 0 16.533-4.933 30.423-13.891 39.112-5.614 5.445-12.433 8.323-19.717 8.323-.279 0-.558-.004-.879-.013-1.329-.002-1.661-.227-1.689-.262-1.193-1.57-.912-7.291.115-10.981l17.584-68.185a7.964 7.964 0 0 0-.857-6.076 7.962 7.962 0 0 0-4.901-3.689 8.012 8.012 0 0 0-9.767 5.76l-3.903 15.135a40.885 40.885 0 0 0-3.759-6.711c-3.161-4.546-7.053-8.05-11.601-10.452l-3.112-1.432-2.612-1.032c-.513 5.479-1.284 10.937-2.528 16.266 2.587 1.194 4.834 3.136 6.687 5.802 5.458 7.852 6.969 20.551 4.041 33.971-4.535 20.785-17.73 34.144-32.036 31.829-5.062-.816-9.204-3.488-11.976-7.725-5.025-7.682-5.671-20.142-1.818-35.083 5.058-19.617 18.616-30.203 28.803-30.203.661 0 1.315.046 1.948.136 1.02.145 2.027.387 2.991.72.482.167.924.352 1.36.553 1.244-5.329 2.015-10.787 2.528-16.266-1.811-.385-3.21-.681-4.623-.882z" fill="#1A1918" fill-rule="evenodd"/>
</svg>

<svg width="284" height="284" viewBox="0 0 284 284" fill="none" xmlns="http://www.w3.org/2000/svg">
<path fill-rule="evenodd" clip-rule="evenodd" d="M147.604 89.172C146.226 88.976 144.812 88.877 143.4 88.877C124.024 88.877 105.381 106.639 99.071 131.111C92.672 155.928 97.674 170.837 102.997 178.974C108.305 187.089 116.205 192.199 125.838 193.751C127.768 194.063 129.727 194.221 131.66 194.221C141.858 194.221 151.521 189.9 159.448 181.914C160.113 183.97 161.049 185.8 162.251 187.389C164.52 190.389 168.814 193.969 176.399 194.01C188.197 194.337 199.646 189.757 208.489 181.178C220.587 169.444 227.25 151.44 227.25 130.434C226.958 111.518 218.227 92.33 203.293 77.789C187.538 62.448 166.84 54 145.014 54C121.142 54 98.893 63.197 82.366 79.898C66.008 96.426 57 118.455 57 141.926C57 165.605 65.061 187.543 79.699 203.698C94.98 220.564 116.454 229.852 140.166 229.852C165.411 229.852 187.253 217.382 188.171 216.851C191.997 214.637 193.308 209.722 191.093 205.894C189.663 203.427 187.003 201.895 184.15 201.895C182.748 201.895 181.361 202.267 180.142 202.971C179.953 203.079 161.009 213.819 140.166 213.819C101.267 213.819 73.034 183.583 73.034 141.926C73.034 101.613 104.652 70.034 145.014 70.034C183.479 70.034 210.776 101.957 211.216 130.557C211.216 147.09 206.283 160.98 197.325 169.669C191.711 175.114 184.892 177.992 177.608 177.992C177.329 177.992 177.05 177.988 176.729 177.979C175.4 177.977 175.068 177.752 175.04 177.717C173.847 176.147 174.128 170.426 175.155 166.736L192.739 98.551C193.274 96.477 192.97 94.319 191.882 92.475C190.793 90.63 189.053 89.32 186.981 88.786C186.322 88.616 185.646 88.529 184.971 88.529C181.316 88.529 178.127 91.004 177.214 94.546L173.311 109.681C172.238 107.271 170.983 105.03 169.552 102.97C166.391 98.424 162.499 94.92 157.951 92.518L154.839 91.086C154.835 91.085 152.227 90.054 152.227 90.054C151.714 95.533 150.943 100.991 149.699 106.32C152.286 107.514 154.533 109.456 156.386 112.122C161.844 119.974 163.355 132.673 160.427 146.093C155.892 166.878 142.697 180.237 128.391 177.922C123.329 177.106 119.187 174.434 116.415 170.197C111.39 162.515 110.744 150.055 114.597 135.114C119.655 115.497 133.213 104.911 143.4 104.911C144.061 104.911 144.715 104.957 145.348 105.047C146.368 105.192 147.375 105.434 148.339 105.767C148.821 105.934 149.263 106.119 149.699 106.32C150.943 100.991 151.714 95.533 152.227 90.054C150.416 89.669 149.017 89.373 147.604 89.172Z" fill="#1A1919"/>
</svg>
